X:1
T:Go Down Death
M:2/4
L:1/16
K:G
 z2 GG| EG EB, EG EB,| E E3 G4| e2B2 z AG B,| E E3 G4| B2A2 z GE B,|\
 E E3 G4| d2B2 z2A-G| B2A2 G E3| E8| e ^c3 e4| E E3- E4| e3 ee eE E|\
 G E2 E z EE E| G E3 z EE E| G E3 z2 E2| G2F2 ^C E3| E8|
